client/public/img/education.svg

<svg version="1.1" id="Capa_1" xmlns="http://www.w3.org/2000/svg" xmlns:xlink="http://www.w3.org/1999/xlink" x="0px" y="0px"
	 viewBox="0 0 477.867 477.867"  xml:space="preserve" fill="white">
<g>
	<g>
		<path d="M460.8,119.467h-85.333v-102.4C375.467,7.641,367.826,0,358.4,0H17.067C7.641,0,0,7.641,0,17.067V409.6
			c0,37.703,30.564,68.267,68.267,68.267H409.6c37.703,0,68.267-30.564,68.267-68.267V136.533
			C477.867,127.108,470.226,119.467,460.8,119.467z M136.533,85.333h102.4c9.426,0,17.067,7.641,17.067,17.067
			s-7.641,17.067-17.067,17.067h-102.4c-9.426,0-17.067-7.641-17.067-17.067S127.108,85.333,136.533,85.333z M290.133,409.6h-204.8
			c-9.426,0-17.067-7.641-17.067-17.067s7.641-17.067,17.067-17.067h204.8c9.426,0,17.067,7.641,17.067,17.067
			S299.559,409.6,290.133,409.6z M290.133,341.333h-204.8c-9.426,0-17.067-7.641-17.067-17.067c0-9.426,7.641-17.067,17.067-17.067
			h204.8c9.426,0,17.067,7.641,17.067,17.067C307.2,333.692,299.559,341.333,290.133,341.333z M290.133,273.067h-204.8
			c-9.426,0-17.067-7.641-17.067-17.067c0-9.426,7.641-17.067,17.067-17.067h204.8c9.426,0,17.067,7.641,17.067,17.067
			C307.2,265.426,299.559,273.067,290.133,273.067z M290.133,204.8h-204.8c-9.426,0-17.067-7.641-17.067-17.067
			c0-9.426,7.641-17.067,17.067-17.067h204.8c9.426,0,17.067,7.641,17.067,17.067C307.2,197.159,299.559,204.8,290.133,204.8z
			 M443.733,409.6c0,18.851-15.282,34.133-34.133,34.133s-34.133-15.282-34.133-34.133v-256h68.267V409.6z"/>
	</g>
</g>
<g>
</g>
<g>
</g>
<g>
</g>
<g>
</g>
<g>
</g>
<g>
</g>
<g>
</g>
<g>
</g>
<g>
</g>
<g>
</g>
<g>
</g>
<g>
</g>
<g>
</g>
<g>
</g>
<g>
</g>
</svg>

<svg id="a1713d87-a598-4e30-88de-0d1185ca2ec0" data-name="Capa 1" xmlns="http://www.w3.org/2000/svg" viewBox="0 0 477.87 477.87"><title>education</title><path d="M460.8,119.47H375.47V17.07A17.07,17.07,0,0,0,358.4,0H17.07A17.07,17.07,0,0,0,0,17.07V409.6a68.27,68.27,0,0,0,68.27,68.27H409.6a68.28,68.28,0,0,0,68.27-68.27V136.53A17.06,17.06,0,0,0,460.8,119.47ZM136.53,85.33h102.4a17.07,17.07,0,0,1,0,34.14H136.53a17.07,17.07,0,0,1,0-34.14ZM290.13,409.6H85.33a17.07,17.07,0,0,1,0-34.13h204.8a17.07,17.07,0,1,1,0,34.13Zm0-68.27H85.33a17.07,17.07,0,0,1,0-34.13h204.8a17.07,17.07,0,1,1,0,34.13Zm0-68.26H85.33a17.07,17.07,0,0,1,0-34.14h204.8a17.07,17.07,0,0,1,0,34.14Zm0-68.27H85.33a17.07,17.07,0,0,1,0-34.13h204.8a17.07,17.07,0,1,1,0,34.13Zm153.6,204.8a34.13,34.13,0,0,1-68.26,0v-256h68.26v256Z" fill="#e5bdff"/></svg>
